src/assets/cloud-with-rain-wind.svg

<svg xmlns="http://www.w3.org/2000/svg" viewBox="0 0 20 20"><path fill="currentColor" d="M9.153 14.656a.423.423 0 0 0-.722-.299l-2.539 2.539a.423.423 0 1 0 .597.6l2.54-2.54a.42.42 0 0 0 .124-.3m-2.539 0a.424.424 0 0 0-.723-.299l-2.539 2.539a.423.423 0 1 0 .597.6l2.54-2.54a.422.422 0 0 0 .125-.3m5.079 0a.424.424 0 0 0-.723-.299l-2.539 2.539a.423.423 0 1 0 .597.6l2.54-2.54a.417.417 0 0 0 .125-.3m2.117-.423a.424.424 0 0 0-.3.124l-2.539 2.539a.423.423 0 1 0 .598.6l2.539-2.54a.423.423 0 0 0-.298-.723m2.957-7.509c.002-.037.006-.073.006-.11a2.541 2.541 0 0 0-2.54-2.54c-.64 0-1.223.238-1.67.629a5.059 5.059 0 0 0-4.256-2.322 5.076 5.076 0 0 0-5.018 4.328 3.385 3.385 0 0 0 .785 6.678h11.852A3.388 3.388 0 0 0 19.313 10a3.387 3.387 0 0 0-2.546-3.276m-.841 5.816H4.074c-1.4 0-2.54-1.14-2.54-2.54a2.53 2.53 0 0 1 1.951-2.468.847.847 0 0 0 .642-.698 4.252 4.252 0 0 1 4.18-3.606c1.436 0 2.337.3 3.122 1.513.134.206.773.768 1.017.801a.848.848 0 0 0 .675-.201 1.69 1.69 0 0 1 1.112-.42c.935 0 1.693.759 1.692 1.702l-.004.062a.845.845 0 0 0 .637.858A2.536 2.536 0 0 1 18.466 10c0 1.4-1.14 2.54-2.54 2.54"/></svg>

<svg xmlns="http://www.w3.org/2000/svg" viewBox="0 0 20 20">
  <path fill="currentColor" d="M9.153,14.656c0-0.233-0.189-0.423-0.423-0.423c-0.117,0-0.223,0.047-0.299,0.124l-2.539,2.539c-0.077,0.078-0.125,0.183-0.125,0.3c0,0.234,0.19,0.423,0.423,0.423c0.117,0,0.223-0.047,0.299-0.123l2.54-2.54C9.106,14.88,9.153,14.773,9.153,14.656 M6.614,14.656c0-0.233-0.19-0.423-0.423-0.423c-0.117,0-0.223,0.047-0.3,0.124l-2.539,2.539c-0.077,0.078-0.125,0.183-0.125,0.3c0,0.234,0.19,0.423,0.423,0.423c0.117,0,0.223-0.047,0.299-0.123l2.54-2.54C6.566,14.88,6.614,14.773,6.614,14.656 M11.693,14.656c0-0.233-0.19-0.423-0.424-0.423c-0.116,0-0.223,0.047-0.299,0.124l-2.539,2.539c-0.077,0.078-0.125,0.183-0.125,0.3c0,0.234,0.19,0.423,0.423,0.423c0.117,0,0.223-0.047,0.299-0.123l2.54-2.54C11.646,14.88,11.693,14.773,11.693,14.656 M13.81,14.233c-0.116,0-0.223,0.047-0.3,0.124l-2.539,2.539c-0.078,0.078-0.125,0.183-0.125,0.3c0,0.234,0.189,0.423,0.423,0.423c0.117,0,0.223-0.047,0.3-0.123l2.539-2.54c0.077-0.076,0.124-0.183,0.124-0.3C14.232,14.423,14.043,14.233,13.81,14.233 M16.767,6.724c0.002-0.037,0.006-0.073,0.006-0.11c0-1.402-1.138-2.54-2.54-2.54c-0.64,0-1.223,0.238-1.67,0.629c-0.903-1.396-2.468-2.322-4.256-2.322c-2.549,0-4.654,1.88-5.018,4.328C1.798,7.063,0.688,8.401,0.688,10c0,1.87,1.516,3.387,3.386,3.387h11.852c1.87,0,3.387-1.517,3.387-3.387C19.312,8.421,18.229,7.099,16.767,6.724 M15.926,12.54H4.074c-1.4,0-2.54-1.14-2.54-2.54c0-1.18,0.802-2.194,1.951-2.468c0.336-0.079,0.59-0.356,0.642-0.698c0.306-2.056,2.103-3.606,4.18-3.606c1.436,0,2.337,0.3,3.122,1.513c0.134,0.206,0.773,0.768,1.017,0.801c0.039,0.006,0.117,0.008,0.117,0.008c0.204,0,0.402-0.073,0.558-0.209c0.31-0.271,0.705-0.42,1.112-0.42c0.935,0,1.693,0.759,1.692,1.702l-0.004,0.062c-0.018,0.401,0.247,0.759,0.637,0.858c1.123,0.288,1.908,1.298,1.908,2.457C18.466,11.4,17.326,12.54,15.926,12.54"/>
</svg>
